tela-icon-theme/src/symbolic/apps/usb-creator-gtk-symbolic.svg

<svg width="16" height="16" version="1.1" xmlns="http://www.w3.org/2000/svg">
 <g color="#000000" fill="#5d656b" font-family="sans-serif" font-weight="400">
  <path d="m5 4c-0.658 0-1.179 0.06-1.617 0.225a1.88 1.88 0 0 0-0.998 0.838c-0.416 0.752-0.37 1.673-0.385 2.931v4.012c0.015 1.258-0.03 2.179 0.385 2.932 0.207 0.376 0.56 0.673 0.998 0.838 0.438 0.164 0.96 0.224 1.617 0.224h4.678a4.5 4.5 0 0 1-0.916-1h-3.762c-0.592 0-1.006-0.063-1.266-0.16-0.26-0.098-0.371-0.203-0.472-0.387-0.202-0.366-0.247-1.193-0.262-2.453v-4c0.015-1.259 0.06-2.087 0.262-2.453 0.1-0.184 0.212-0.29 0.472-0.387s0.674-0.16 1.266-0.16h5c0.592 0 1.006 0.063 1.266 0.16 0.26 0.098 0.371 0.203 0.472 0.387 0.202 0.366 0.247 1.194 0.262 2.453v0.033a4.5 4.5 0 0 1 0.5-0.033 4.5 4.5 0 0 1 0.5 0.031v-0.037c-0.015-1.258 0.03-2.179-0.385-2.932a1.88 1.88 0 0 0-0.998-0.838c-0.437-0.164-0.96-0.224-1.617-0.224zm7.5 5a3.5 3.5 0 1 0 0 7 3.5 3.5 0 0 0 0-7zm-0.5 1h1v0.668c0 0.348-0.016 0.667-0.047 0.957-0.03 0.29-0.069 0.581-0.115 0.875h1.162l-1.5 2.5-1.5-2.5h1.172a12.898 12.898 0 0 1-0.125-0.875 9.148 9.148 0 0 1-0.047-0.957z" overflow="visible" solid-color="#000000" style="font-feature-settings:normal;font-variant-alternates:normal;font-variant-caps:normal;font-variant-ligatures:normal;font-variant-numeric:normal;font-variant-position:normal;isolation:auto;mix-blend-mode:normal;shape-padding:0;text-decoration-color:#000000;text-decoration-line:none;text-decoration-style:solid;text-indent:0;text-orientation:mixed;text-transform:none;white-space:normal"/>
  <path d="m4 0v3h1v-2h5v2h1v-3zm2 2v1h1v-1zm2 0v1h1v-1z" fill-rule="evenodd" overflow="visible" solid-color="#000000" style="font-feature-settings:normal;font-variant-alternates:normal;font-variant-caps:normal;font-variant-ligatures:normal;font-variant-numeric:normal;font-variant-position:normal;isolation:auto;mix-blend-mode:normal;shape-padding:0;text-decoration-color:#000000;text-decoration-line:none;text-decoration-style:solid;text-indent:0;text-orientation:mixed;text-transform:none;white-space:normal"/>
 </g>
</svg>

<svg height="16" width="16" xmlns="http://www.w3.org/2000/svg"><g color="#000" font-weight="400" font-family="sans-serif" fill="#5d656b"><path d="M5 4c-.658 0-1.179.06-1.617.225a1.88 1.88 0 00-.998.838c-.416.752-.37 1.673-.385 2.931V12.006c.015 1.258-.03 2.179.385 2.932.207.376.56.673.998.838.438.164.96.224 1.617.224h4.678a4.5 4.5 0 01-.916-1H5c-.592 0-1.006-.063-1.266-.16-.26-.098-.371-.203-.472-.387C3.06 14.087 3.015 13.26 3 12V8c.015-1.259.06-2.087.262-2.453.1-.184.212-.29.472-.387C3.994 5.063 4.408 5 5 5h5c.592 0 1.006.063 1.266.16.26.098.371.203.472.387.202.366.247 1.194.262 2.453v.033A4.5 4.5 0 0112.5 8a4.5 4.5 0 01.5.031V7.994c-.015-1.258.03-2.179-.385-2.932a1.88 1.88 0 00-.998-.838C11.18 4.06 10.657 4 10 4zm7.5 5a3.5 3.5 0 100 7 3.5 3.5 0 000-7zm-.5 1h1v.668c0 .348-.016.667-.047.957-.03.29-.069.581-.115.875H14L12.5 15 11 12.5h1.172a12.898 12.898 0 01-.125-.875 9.148 9.148 0 01-.047-.957z" style="line-height:normal;font-variant-ligatures:normal;font-variant-position:normal;font-variant-caps:normal;font-variant-numeric:normal;font-variant-alternates:normal;font-feature-settings:normal;text-indent:0;text-align:start;text-decoration-line:none;text-decoration-style:solid;text-decoration-color:#000;text-transform:none;text-orientation:mixed;white-space:normal;shape-padding:0;isolation:auto;mix-blend-mode:normal;solid-color:#000;solid-opacity:1;marker:none" overflow="visible"/><path d="M4 0v3h1V1h5v2h1V0zm2 2v1h1V2zm2 0v1h1V2z" style="line-height:normal;font-variant-ligatures:normal;font-variant-position:normal;font-variant-caps:normal;font-variant-numeric:normal;font-variant-alternates:normal;font-feature-settings:normal;text-indent:0;text-align:start;text-decoration-line:none;text-decoration-style:solid;text-decoration-color:#000;text-transform:none;text-orientation:mixed;white-space:normal;shape-padding:0;isolation:auto;mix-blend-mode:normal;solid-color:#000;solid-opacity:1" overflow="visible" fill-rule="evenodd"/></g></svg>
